src/icons/star Filled.svg

<svg width="24" height="23" viewBox="0 0 24 23" fill="none" xmlns="http://www.w3.org/2000/svg">
<path d="M18.134 21.672L18.1109 22.1715L18.1089 21.6715C18.0029 21.6719 17.8983 21.647 17.8039 21.599C17.8033 21.5987 17.8028 21.5984 17.8022 21.5981L11.8561 18.4852L11.6242 18.3638L11.3923 18.4852L5.44233 21.6002L5.44153 21.6006C5.33112 21.6586 5.20664 21.6846 5.08224 21.6754C4.95784 21.6662 4.83851 21.6223 4.73781 21.5487C4.63712 21.4751 4.55909 21.3747 4.5126 21.259C4.46612 21.1432 4.45304 21.0167 4.47486 20.8939L3.98257 20.8065L4.47486 20.8939L5.64153 14.3256L5.68794 14.0643L5.49752 13.8794L0.693662 9.21545C0.609069 9.13028 0.549028 9.02383 0.519905 8.90734C0.490921 8.7914 0.49364 8.66984 0.527733 8.55536C0.566692 8.4387 0.637179 8.33505 0.731429 8.25593C0.826876 8.1758 0.942874 8.12403 1.06626 8.10649L1.06795 8.10625L7.71795 7.13791L7.97906 7.09989L8.09502 6.86288L11.0234 0.877877L11.0242 0.876073C11.0788 0.763359 11.1641 0.668301 11.2702 0.601789C11.3763 0.535277 11.499 0.5 11.6242 0.5C11.7495 0.5 11.8722 0.535277 11.9783 0.601789C12.0844 0.668301 12.1696 0.763359 12.2242 0.876073L12.2242 0.876083L12.2263 0.880334L15.1897 6.85367L15.3061 7.08848L15.5655 7.12625L22.2155 8.09458L22.2172 8.09482C22.3406 8.11236 22.4566 8.16413 22.552 8.24426C22.6463 8.32339 22.7168 8.42703 22.7557 8.5437C22.7898 8.65817 22.7925 8.77974 22.7636 8.89567C22.7344 9.01216 22.6744 9.1186 22.5898 9.20377L17.7859 13.8677L17.5955 14.0526L17.6419 14.3139L18.8086 20.8822L18.8086 20.8822L18.8097 20.8883C18.8335 21.0133 18.8211 21.1425 18.7738 21.2606C18.7269 21.3779 18.6476 21.4795 18.5452 21.5535C18.4249 21.6371 18.2804 21.6788 18.134 21.672Z" fill="#12113D"/>
<path d="M18.134 21.672L18.1109 22.1715L18.1089 21.6715C18.0029 21.6719 17.8983 21.647 17.8039 21.599C17.8033 21.5987 17.8028 21.5984 17.8022 21.5981L11.8561 18.4852L11.6242 18.3638L11.3923 18.4852L5.44233 21.6002L5.44153 21.6006C5.33112 21.6586 5.20664 21.6846 5.08224 21.6754C4.95784 21.6662 4.83851 21.6223 4.73781 21.5487C4.63712 21.4751 4.55909 21.3747 4.5126 21.259C4.46612 21.1432 4.45304 21.0167 4.47486 20.8939L3.98257 20.8065L4.47486 20.8939L5.64153 14.3256L5.68794 14.0643L5.49752 13.8794L0.693662 9.21545C0.609069 9.13028 0.549028 9.02383 0.519905 8.90734C0.490921 8.7914 0.49364 8.66984 0.527733 8.55536C0.566692 8.4387 0.637179 8.33505 0.731429 8.25593C0.826876 8.1758 0.942874 8.12403 1.06626 8.10649L1.06795 8.10625L7.71795 7.13791L7.97906 7.09989L8.09502 6.86288L11.0234 0.877877L11.0242 0.876073C11.0788 0.763359 11.1641 0.668301 11.2702 0.601789C11.3763 0.535277 11.499 0.5 11.6242 0.5C11.7495 0.5 11.8722 0.535277 11.9783 0.601789C12.0844 0.668301 12.1696 0.763359 12.2242 0.876073L12.2242 0.876083L12.2263 0.880334L15.1897 6.85367L15.3061 7.08848L15.5655 7.12625L22.2155 8.09458L22.2172 8.09482C22.3406 8.11236 22.4566 8.16413 22.552 8.24426C22.6463 8.32339 22.7168 8.42703 22.7557 8.5437C22.7898 8.65817 22.7925 8.77974 22.7636 8.89567C22.7344 9.01216 22.6744 9.1186 22.5898 9.20377L17.7859 13.8677L17.5955 14.0526L17.6419 14.3139L18.8086 20.8822L18.8086 20.8822L18.8097 20.8883C18.8335 21.0133 18.8211 21.1425 18.7738 21.2606C18.7269 21.3779 18.6476 21.4795 18.5452 21.5535C18.4249 21.6371 18.2804 21.6788 18.134 21.672Z" fill="#DEE5FF"/>
<path d="M18.134 21.672L18.1109 22.1715L18.1089 21.6715C18.0029 21.6719 17.8983 21.647 17.8039 21.599C17.8033 21.5987 17.8028 21.5984 17.8022 21.5981L11.8561 18.4852L11.6242 18.3638L11.3923 18.4852L5.44233 21.6002L5.44153 21.6006C5.33112 21.6586 5.20664 21.6846 5.08224 21.6754C4.95784 21.6662 4.83851 21.6223 4.73781 21.5487C4.63712 21.4751 4.55909 21.3747 4.5126 21.259C4.46612 21.1432 4.45304 21.0167 4.47486 20.8939L3.98257 20.8065L4.47486 20.8939L5.64153 14.3256L5.68794 14.0643L5.49752 13.8794L0.693662 9.21545C0.609069 9.13028 0.549028 9.02383 0.519905 8.90734C0.490921 8.7914 0.49364 8.66984 0.527733 8.55536C0.566692 8.4387 0.637179 8.33505 0.731429 8.25593C0.826876 8.1758 0.942874 8.12403 1.06626 8.10649L1.06795 8.10625L7.71795 7.13791L7.97906 7.09989L8.09502 6.86288L11.0234 0.877877L11.0242 0.876073C11.0788 0.763359 11.1641 0.668301 11.2702 0.601789C11.3763 0.535277 11.499 0.5 11.6242 0.5C11.7495 0.5 11.8722 0.535277 11.9783 0.601789C12.0844 0.668301 12.1696 0.763359 12.2242 0.876073L12.2242 0.876083L12.2263 0.880334L15.1897 6.85367L15.3061 7.08848L15.5655 7.12625L22.2155 8.09458L22.2172 8.09482C22.3406 8.11236 22.4566 8.16413 22.552 8.24426C22.6463 8.32339 22.7168 8.42703 22.7557 8.5437C22.7898 8.65817 22.7925 8.77974 22.7636 8.89567C22.7344 9.01216 22.6744 9.1186 22.5898 9.20377L17.7859 13.8677L17.5955 14.0526L17.6419 14.3139L18.8086 20.8822L18.8086 20.8822L18.8097 20.8883C18.8335 21.0133 18.8211 21.1425 18.7738 21.2606C18.7269 21.3779 18.6476 21.4795 18.5452 21.5535C18.4249 21.6371 18.2804 21.6788 18.134 21.672Z" fill="#283385"/>
<path d="M18.134 21.672L18.1109 22.1715L18.1089 21.6715C18.0029 21.6719 17.8983 21.647 17.8039 21.599C17.8033 21.5987 17.8028 21.5984 17.8022 21.5981L11.8561 18.4852L11.6242 18.3638L11.3923 18.4852L5.44233 21.6002L5.44153 21.6006C5.33112 21.6586 5.20664 21.6846 5.08224 21.6754C4.95784 21.6662 4.83851 21.6223 4.73781 21.5487C4.63712 21.4751 4.55909 21.3747 4.5126 21.259C4.46612 21.1432 4.45304 21.0167 4.47486 20.8939L3.98257 20.8065L4.47486 20.8939L5.64153 14.3256L5.68794 14.0643L5.49752 13.8794L0.693662 9.21545C0.609069 9.13028 0.549028 9.02383 0.519905 8.90734C0.490921 8.7914 0.49364 8.66984 0.527733 8.55536C0.566692 8.4387 0.637179 8.33505 0.731429 8.25593C0.826876 8.1758 0.942874 8.12403 1.06626 8.10649L1.06795 8.10625L7.71795 7.13791L7.97906 7.09989L8.09502 6.86288L11.0234 0.877877L11.0242 0.876073C11.0788 0.763359 11.1641 0.668301 11.2702 0.601789C11.3763 0.535277 11.499 0.5 11.6242 0.5C11.7495 0.5 11.8722 0.535277 11.9783 0.601789C12.0844 0.668301 12.1696 0.763359 12.2242 0.876073L12.2242 0.876083L12.2263 0.880334L15.1897 6.85367L15.3061 7.08848L15.5655 7.12625L22.2155 8.09458L22.2172 8.09482C22.3406 8.11236 22.4566 8.16413 22.552 8.24426C22.6463 8.32339 22.7168 8.42703 22.7557 8.5437C22.7898 8.65817 22.7925 8.77974 22.7636 8.89567C22.7344 9.01216 22.6744 9.1186 22.5898 9.20377L17.7859 13.8677L17.5955 14.0526L17.6419 14.3139L18.8086 20.8822L18.8086 20.8822L18.8097 20.8883C18.8335 21.0133 18.8211 21.1425 18.7738 21.2606C18.7269 21.3779 18.6476 21.4795 18.5452 21.5535C18.4249 21.6371 18.2804 21.6788 18.134 21.672Z" fill="#FE450D"/>
<path d="M18.134 21.672L18.1109 22.1715L18.1089 21.6715C18.0029 21.6719 17.8983 21.647 17.8039 21.599C17.8033 21.5987 17.8028 21.5984 17.8022 21.5981L11.8561 18.4852L11.6242 18.3638L11.3923 18.4852L5.44233 21.6002L5.44153 21.6006C5.33112 21.6586 5.20664 21.6846 5.08224 21.6754C4.95784 21.6662 4.83851 21.6223 4.73781 21.5487C4.63712 21.4751 4.55909 21.3747 4.5126 21.259C4.46612 21.1432 4.45304 21.0167 4.47486 20.8939L3.98257 20.8065L4.47486 20.8939L5.64153 14.3256L5.68794 14.0643L5.49752 13.8794L0.693662 9.21545C0.609069 9.13028 0.549028 9.02383 0.519905 8.90734C0.490921 8.7914 0.49364 8.66984 0.527733 8.55536C0.566692 8.4387 0.637179 8.33505 0.731429 8.25593C0.826876 8.1758 0.942874 8.12403 1.06626 8.10649L1.06795 8.10625L7.71795 7.13791L7.97906 7.09989L8.09502 6.86288L11.0234 0.877877L11.0242 0.876073C11.0788 0.763359 11.1641 0.668301 11.2702 0.601789C11.3763 0.535277 11.499 0.5 11.6242 0.5C11.7495 0.5 11.8722 0.535277 11.9783 0.601789C12.0844 0.668301 12.1696 0.763359 12.2242 0.876073L12.2242 0.876083L12.2263 0.880334L15.1897 6.85367L15.3061 7.08848L15.5655 7.12625L22.2155 8.09458L22.2172 8.09482C22.3406 8.11236 22.4566 8.16413 22.552 8.24426C22.6463 8.32339 22.7168 8.42703 22.7557 8.5437C22.7898 8.65817 22.7925 8.77974 22.7636 8.89567C22.7344 9.01216 22.6744 9.1186 22.5898 9.20377L17.7859 13.8677L17.5955 14.0526L17.6419 14.3139L18.8086 20.8822L18.8086 20.8822L18.8097 20.8883C18.8335 21.0133 18.8211 21.1425 18.7738 21.2606C18.7269 21.3779 18.6476 21.4795 18.5452 21.5535C18.4249 21.6371 18.2804 21.6788 18.134 21.672Z" stroke="#12113D"/>
<path d="M18.134 21.672L18.1109 22.1715L18.1089 21.6715C18.0029 21.6719 17.8983 21.647 17.8039 21.599C17.8033 21.5987 17.8028 21.5984 17.8022 21.5981L11.8561 18.4852L11.6242 18.3638L11.3923 18.4852L5.44233 21.6002L5.44153 21.6006C5.33112 21.6586 5.20664 21.6846 5.08224 21.6754C4.95784 21.6662 4.83851 21.6223 4.73781 21.5487C4.63712 21.4751 4.55909 21.3747 4.5126 21.259C4.46612 21.1432 4.45304 21.0167 4.47486 20.8939L3.98257 20.8065L4.47486 20.8939L5.64153 14.3256L5.68794 14.0643L5.49752 13.8794L0.693662 9.21545C0.609069 9.13028 0.549028 9.02383 0.519905 8.90734C0.490921 8.7914 0.49364 8.66984 0.527733 8.55536C0.566692 8.4387 0.637179 8.33505 0.731429 8.25593C0.826876 8.1758 0.942874 8.12403 1.06626 8.10649L1.06795 8.10625L7.71795 7.13791L7.97906 7.09989L8.09502 6.86288L11.0234 0.877877L11.0242 0.876073C11.0788 0.763359 11.1641 0.668301 11.2702 0.601789C11.3763 0.535277 11.499 0.5 11.6242 0.5C11.7495 0.5 11.8722 0.535277 11.9783 0.601789C12.0844 0.668301 12.1696 0.763359 12.2242 0.876073L12.2242 0.876083L12.2263 0.880334L15.1897 6.85367L15.3061 7.08848L15.5655 7.12625L22.2155 8.09458L22.2172 8.09482C22.3406 8.11236 22.4566 8.16413 22.552 8.24426C22.6463 8.32339 22.7168 8.42703 22.7557 8.5437C22.7898 8.65817 22.7925 8.77974 22.7636 8.89567C22.7344 9.01216 22.6744 9.1186 22.5898 9.20377L17.7859 13.8677L17.5955 14.0526L17.6419 14.3139L18.8086 20.8822L18.8086 20.8822L18.8097 20.8883C18.8335 21.0133 18.8211 21.1425 18.7738 21.2606C18.7269 21.3779 18.6476 21.4795 18.5452 21.5535C18.4249 21.6371 18.2804 21.6788 18.134 21.672Z" stroke="#DEE5FF"/>
<path d="M18.134 21.672L18.1109 22.1715L18.1089 21.6715C18.0029 21.6719 17.8983 21.647 17.8039 21.599C17.8033 21.5987 17.8028 21.5984 17.8022 21.5981L11.8561 18.4852L11.6242 18.3638L11.3923 18.4852L5.44233 21.6002L5.44153 21.6006C5.33112 21.6586 5.20664 21.6846 5.08224 21.6754C4.95784 21.6662 4.83851 21.6223 4.73781 21.5487C4.63712 21.4751 4.55909 21.3747 4.5126 21.259C4.46612 21.1432 4.45304 21.0167 4.47486 20.8939L3.98257 20.8065L4.47486 20.8939L5.64153 14.3256L5.68794 14.0643L5.49752 13.8794L0.693662 9.21545C0.609069 9.13028 0.549028 9.02383 0.519905 8.90734C0.490921 8.7914 0.49364 8.66984 0.527733 8.55536C0.566692 8.4387 0.637179 8.33505 0.731429 8.25593C0.826876 8.1758 0.942874 8.12403 1.06626 8.10649L1.06795 8.10625L7.71795 7.13791L7.97906 7.09989L8.09502 6.86288L11.0234 0.877877L11.0242 0.876073C11.0788 0.763359 11.1641 0.668301 11.2702 0.601789C11.3763 0.535277 11.499 0.5 11.6242 0.5C11.7495 0.5 11.8722 0.535277 11.9783 0.601789C12.0844 0.668301 12.1696 0.763359 12.2242 0.876073L12.2242 0.876083L12.2263 0.880334L15.1897 6.85367L15.3061 7.08848L15.5655 7.12625L22.2155 8.09458L22.2172 8.09482C22.3406 8.11236 22.4566 8.16413 22.552 8.24426C22.6463 8.32339 22.7168 8.42703 22.7557 8.5437C22.7898 8.65817 22.7925 8.77974 22.7636 8.89567C22.7344 9.01216 22.6744 9.1186 22.5898 9.20377L17.7859 13.8677L17.5955 14.0526L17.6419 14.3139L18.8086 20.8822L18.8086 20.8822L18.8097 20.8883C18.8335 21.0133 18.8211 21.1425 18.7738 21.2606C18.7269 21.3779 18.6476 21.4795 18.5452 21.5535C18.4249 21.6371 18.2804 21.6788 18.134 21.672Z" stroke="#283385"/>
<path d="M18.134 21.672L18.1109 22.1715L18.1089 21.6715C18.0029 21.6719 17.8983 21.647 17.8039 21.599C17.8033 21.5987 17.8028 21.5984 17.8022 21.5981L11.8561 18.4852L11.6242 18.3638L11.3923 18.4852L5.44233 21.6002L5.44153 21.6006C5.33112 21.6586 5.20664 21.6846 5.08224 21.6754C4.95784 21.6662 4.83851 21.6223 4.73781 21.5487C4.63712 21.4751 4.55909 21.3747 4.5126 21.259C4.46612 21.1432 4.45304 21.0167 4.47486 20.8939L3.98257 20.8065L4.47486 20.8939L5.64153 14.3256L5.68794 14.0643L5.49752 13.8794L0.693662 9.21545C0.609069 9.13028 0.549028 9.02383 0.519905 8.90734C0.490921 8.7914 0.49364 8.66984 0.527733 8.55536C0.566692 8.4387 0.637179 8.33505 0.731429 8.25593C0.826876 8.1758 0.942874 8.12403 1.06626 8.10649L1.06795 8.10625L7.71795 7.13791L7.97906 7.09989L8.09502 6.86288L11.0234 0.877877L11.0242 0.876073C11.0788 0.763359 11.1641 0.668301 11.2702 0.601789C11.3763 0.535277 11.499 0.5 11.6242 0.5C11.7495 0.5 11.8722 0.535277 11.9783 0.601789C12.0844 0.668301 12.1696 0.763359 12.2242 0.876073L12.2242 0.876083L12.2263 0.880334L15.1897 6.85367L15.3061 7.08848L15.5655 7.12625L22.2155 8.09458L22.2172 8.09482C22.3406 8.11236 22.4566 8.16413 22.552 8.24426C22.6463 8.32339 22.7168 8.42703 22.7557 8.5437C22.7898 8.65817 22.7925 8.77974 22.7636 8.89567C22.7344 9.01216 22.6744 9.1186 22.5898 9.20377L17.7859 13.8677L17.5955 14.0526L17.6419 14.3139L18.8086 20.8822L18.8086 20.8822L18.8097 20.8883C18.8335 21.0133 18.8211 21.1425 18.7738 21.2606C18.7269 21.3779 18.6476 21.4795 18.5452 21.5535C18.4249 21.6371 18.2804 21.6788 18.134 21.672Z" stroke="#FE450D"/>
</svg>

<svg xmlns="http://www.w3.org/2000/svg" width="24" height="23" fill="none"><path fill="#12113D" d="m18.134 21.672-.023.5-.002-.5a.668.668 0 0 1-.305-.073h-.002l-5.946-3.114-.232-.121-.232.121-5.95 3.115a.667.667 0 0 1-.967-.706l-.492-.087.492.087 1.167-6.568.046-.262-.19-.185L.694 9.215a.667.667 0 0 1-.166-.66.667.667 0 0 1 .538-.449h.002l6.65-.968.261-.038.116-.237L11.023.878l.001-.002a.667.667 0 0 1 1.2 0l.002.004 2.964 5.974.116.234.26.038 6.65.969h.001a.666.666 0 0 1 .539.449.667.667 0 0 1-.166.66l-4.804 4.664-.19.185.046.26 1.167 6.57v.005a.666.666 0 0 1-.264.665.666.666 0 0 1-.411.119Z"/><path fill="#DEE5FF" d="m18.134 21.672-.023.5-.002-.5a.668.668 0 0 1-.305-.073h-.002l-5.946-3.114-.232-.121-.232.121-5.95 3.115a.667.667 0 0 1-.967-.706l-.492-.087.492.087 1.167-6.568.046-.262-.19-.185L.694 9.215a.667.667 0 0 1-.166-.66.667.667 0 0 1 .538-.449h.002l6.65-.968.261-.038.116-.237L11.023.878l.001-.002a.667.667 0 0 1 1.2 0l.002.004 2.964 5.974.116.234.26.038 6.65.969h.001a.666.666 0 0 1 .539.449.667.667 0 0 1-.166.66l-4.804 4.664-.19.185.046.26 1.167 6.57v.005a.666.666 0 0 1-.264.665.666.666 0 0 1-.411.119Z"/><path fill="#283385" d="m18.134 21.672-.023.5-.002-.5a.668.668 0 0 1-.305-.073h-.002l-5.946-3.114-.232-.121-.232.121-5.95 3.115a.667.667 0 0 1-.967-.706l-.492-.087.492.087 1.167-6.568.046-.262-.19-.185L.694 9.215a.667.667 0 0 1-.166-.66.667.667 0 0 1 .538-.449h.002l6.65-.968.261-.038.116-.237L11.023.878l.001-.002a.667.667 0 0 1 1.2 0l.002.004 2.964 5.974.116.234.26.038 6.65.969h.001a.666.666 0 0 1 .539.449.667.667 0 0 1-.166.66l-4.804 4.664-.19.185.046.26 1.167 6.57v.005a.666.666 0 0 1-.264.665.666.666 0 0 1-.411.119Z"/><path fill="#FE450D" d="m18.134 21.672-.023.5-.002-.5a.668.668 0 0 1-.305-.073h-.002l-5.946-3.114-.232-.121-.232.121-5.95 3.115a.667.667 0 0 1-.967-.706l-.492-.087.492.087 1.167-6.568.046-.262-.19-.185L.694 9.215a.667.667 0 0 1-.166-.66.667.667 0 0 1 .538-.449h.002l6.65-.968.261-.038.116-.237L11.023.878l.001-.002a.667.667 0 0 1 1.2 0l.002.004 2.964 5.974.116.234.26.038 6.65.969h.001a.666.666 0 0 1 .539.449.667.667 0 0 1-.166.66l-4.804 4.664-.19.185.046.26 1.167 6.57v.005a.666.666 0 0 1-.264.665.666.666 0 0 1-.411.119Z"/><path stroke="#12113D" d="m18.134 21.672-.023.5-.002-.5a.668.668 0 0 1-.305-.073h-.002l-5.946-3.114-.232-.121-.232.121-5.95 3.115a.667.667 0 0 1-.967-.706l-.492-.087.492.087 1.167-6.568.046-.262-.19-.185L.694 9.215a.667.667 0 0 1-.166-.66.667.667 0 0 1 .538-.449h.002l6.65-.968.261-.038.116-.237L11.023.878l.001-.002a.667.667 0 0 1 1.2 0l.002.004 2.964 5.974.116.234.26.038 6.65.969h.001a.666.666 0 0 1 .539.449.667.667 0 0 1-.166.66l-4.804 4.664-.19.185.046.26 1.167 6.57v.005a.666.666 0 0 1-.264.665.666.666 0 0 1-.411.119Z"/><path stroke="#DEE5FF" d="m18.134 21.672-.023.5-.002-.5a.668.668 0 0 1-.305-.073h-.002l-5.946-3.114-.232-.121-.232.121-5.95 3.115a.667.667 0 0 1-.967-.706l-.492-.087.492.087 1.167-6.568.046-.262-.19-.185L.694 9.215a.667.667 0 0 1-.166-.66.667.667 0 0 1 .538-.449h.002l6.65-.968.261-.038.116-.237L11.023.878l.001-.002a.667.667 0 0 1 1.2 0l.002.004 2.964 5.974.116.234.26.038 6.65.969h.001a.666.666 0 0 1 .539.449.667.667 0 0 1-.166.66l-4.804 4.664-.19.185.046.26 1.167 6.57v.005a.666.666 0 0 1-.264.665.666.666 0 0 1-.411.119Z"/><path stroke="#283385" d="m18.134 21.672-.023.5-.002-.5a.668.668 0 0 1-.305-.073h-.002l-5.946-3.114-.232-.121-.232.121-5.95 3.115a.667.667 0 0 1-.967-.706l-.492-.087.492.087 1.167-6.568.046-.262-.19-.185L.694 9.215a.667.667 0 0 1-.166-.66.667.667 0 0 1 .538-.449h.002l6.65-.968.261-.038.116-.237L11.023.878l.001-.002a.667.667 0 0 1 1.2 0l.002.004 2.964 5.974.116.234.26.038 6.65.969h.001a.666.666 0 0 1 .539.449.667.667 0 0 1-.166.66l-4.804 4.664-.19.185.046.26 1.167 6.57v.005a.666.666 0 0 1-.264.665.666.666 0 0 1-.411.119Z"/><path stroke="#FE450D" d="m18.134 21.672-.023.5-.002-.5a.668.668 0 0 1-.305-.073h-.002l-5.946-3.114-.232-.121-.232.121-5.95 3.115a.667.667 0 0 1-.967-.706l-.492-.087.492.087 1.167-6.568.046-.262-.19-.185L.694 9.215a.667.667 0 0 1-.166-.66.667.667 0 0 1 .538-.449h.002l6.65-.968.261-.038.116-.237L11.023.878l.001-.002a.667.667 0 0 1 1.2 0l.002.004 2.964 5.974.116.234.26.038 6.65.969h.001a.666.666 0 0 1 .539.449.667.667 0 0 1-.166.66l-4.804 4.664-.19.185.046.26 1.167 6.57v.005a.666.666 0 0 1-.264.665.666.666 0 0 1-.411.119Z"/></svg>
